assets/payment/paypal.svg

<?xml version="1.0" encoding="utf-8"?>
<!-- Generator: Adobe Illustrator 22.0.1, SVG Export Plug-In . SVG Version: 6.00 Build 0)  -->
<svg version="1.1" xmlns="http://www.w3.org/2000/svg" xmlns:xlink="http://www.w3.org/1999/xlink" x="0px" y="0px"
	 viewBox="0 0 1050 200" style="enable-background:new 0 0 1050 200;" xml:space="preserve">
<style type="text/css">
	.st0{fill:#009CDE;}
	.st1{fill:#FFFFFF;}
	.st2{filter:url(#Adobe_OpacityMaskFilter);}
	.st3{opacity:0.678;mask:url(#e_1_);fill:#FFFFFF;enable-background:new    ;}
	.st4{filter:url(#Adobe_OpacityMaskFilter_1_);}
	.st5{opacity:0.696;mask:url(#g_1_);fill:#FFFFFF;enable-background:new    ;}
	.st6{filter:url(#Adobe_OpacityMaskFilter_2_);}
	.st7{mask:url(#i_1_);fill:#FFFFFF;}
</style>
<g id="button">
	<path id="blue" class="st0" d="M1018,200H32c-17.7,0-32-14.3-32-32L0,32C0,14.3,14.3,0,32,0l986,0c17.7,0,32,14.3,32,32v136
		C1050,185.7,1035.7,200,1018,200z"/>
</g>
<g id="donate">
	<g>
		<path class="st1" d="M73.3,110.6c0-13.1,6.8-21.4,17.2-21.4c5.9,0,10.6,3.1,12.8,7.7h0.2V79.3c0-3.3,2-5.1,4.8-5.1
			s4.9,1.8,4.9,5.1v47.9c0,3.1-2,4.9-4.8,4.9s-4.9-1.7-4.9-4.9V124h-0.2c-2,4.8-6.4,8-12.9,8C80,132,73.3,123.8,73.3,110.6z
			 M103.5,110.6c0-8.1-4-13.4-10.2-13.4c-6.3,0-10.2,5.2-10.2,13.4c0,8.2,3.9,13.4,10.2,13.4C99.5,124,103.5,118.8,103.5,110.6z"/>
		<path class="st1" d="M205.5,131.7c-3.3,0-5.2-2-5.2-5.7v-19.7c0-5.4-2.7-8.5-7.5-8.5c-5.4,0-8.7,3.9-8.7,10.4v17.8
			c0,3.6-1.9,5.7-5.2,5.7s-5.2-2-5.2-5.7V95c0-3.4,2-5.5,5.1-5.5c3.1,0,4.9,1.8,5,5.2v2.5h0.5c1.6-4.9,6.3-8,12.3-8
			c8.8,0,13.8,5.2,13.8,14.3v22.5C210.6,129.7,208.8,131.7,205.5,131.7z"/>
		<path class="st1" d="M232,131.9c-8.1,0-13.6-5.1-13.6-12.6c0-7.7,5.7-12.4,15.1-12.4h9.8v-3.4c0-4.2-2.6-6.4-7.3-6.4
			c-3.1,0-5.4,1.2-7.7,3.2c-1.2,0.9-2.3,1.4-3.9,1.4c-2.3,0-3.7-1.5-3.7-3.6c0-2.4,1.7-4.9,5.3-6.7c2.6-1.4,6.1-2.1,10.6-2.1
			c10.9,0,17,5.2,17,14.3v22.7c0,3.5-1.8,5.5-5,5.5c-2.7,0-4.5-1.5-4.8-4.2v-1.4h-0.5C241.1,129.8,237,131.9,232,131.9z
			 M235.4,124.5c4.5,0,7.9-3,7.9-7v-4.3h-8c-4.2,0-6.7,2-6.7,5.4C228.6,122.1,231.4,124.5,235.4,124.5z"/>
		<path class="st1" d="M266.3,98.3h-2.1c-2.8,0-4.4-1.5-4.4-4s1.6-4,4.4-4h2.3v-5.4c0-3.6,1.8-5.5,5-5.5c3.2,0,5,2,5,5.5v5.4h4.1
			c2.8,0,4.4,1.5,4.4,4s-1.6,4-4.4,4h-4v20.9c0,3.8,1,5,4.1,5c1.1,0,1.8-0.2,2.7-0.2c1.8,0,3,1.2,3,3.1c0,1.5-0.7,2.8-2.1,3.7
			c-1.4,0.9-3.6,1.4-6.4,1.4c-8.2,0-11.7-3.4-11.7-11.9V98.3z"/>
		<path class="st1" d="M291.3,108c0-11.3,7.5-19,18.6-19c10.5,0,18,7.5,18,17.7c0,4.6-1.3,6.2-5.2,6.2h-21v1.8
			c0,5.8,3.7,9.5,9.8,9.5c3.2,0,5.5-0.8,7.3-2.3c2-1.5,2.7-2.1,4.3-2.1c2.1,0,3.6,1.5,3.6,3.8c0,1.8-1.1,3.6-3.1,5
			c-2.7,2.3-7.5,3.7-12.8,3.7c-12.1,0-19.6-7.1-19.6-18.9V108z M318.1,106.4L318.1,106.4c0-5.7-3.1-9.4-8-9.4
			c-5.1,0-8.3,3.8-8.3,9.3v0.1H318.1z"/>
		<path class="st1" d="M359.5,97.1c-0.3-1.2-0.4-1.9-0.4-2.5c0-2.9,2.1-5,5.2-5c2.7,0,4.5,1.8,5,5.1l5.2,25.9h0.5l6.2-24.5
			c1.2-4.8,2.9-6.6,6.3-6.6c3.4,0,5.2,1.8,6.4,6.6l6.3,24.5h0.5l5.4-25.9c0.6-3.2,2.4-5.1,5-5.1c3.1,0,5,2,5,4.7
			c0,0.6-0.2,1.5-0.5,2.7l-7.2,26.5c-1.7,6.2-3.7,8.2-7.3,8.2c-3.9,0-5.9-2-7.5-8.2l-6-21.8h-0.4l-5.8,21.8
			c-1.6,6.3-3.4,8.2-7.3,8.2c-3.8,0-5.9-2.1-7.5-8.2L359.5,97.1z"/>
		<path class="st1" d="M426.9,74c3.4,0,5.9,2.3,5.9,5.4s-2.5,5.4-5.9,5.4c-3.3,0-5.8-2.3-5.8-5.4S423.6,74,426.9,74z M426.9,131.7
			c-3.2,0-5.1-2-5.1-5.7V95.2c0-3.8,2-5.7,5.2-5.7c3.2,0,5.1,2,5.1,5.7v30.9C432.1,129.8,430.1,131.7,426.9,131.7z"/>
		<path class="st1" d="M444,98.3h-2.1c-2.8,0-4.4-1.5-4.4-4s1.6-4,4.4-4h2.3v-5.4c0-3.6,1.8-5.5,5-5.5c3.2,0,5,2,5,5.5v5.4h4.1
			c2.8,0,4.4,1.5,4.4,4s-1.6,4-4.4,4h-4v20.9c0,3.8,1,5,4.1,5c1.1,0,1.8-0.2,2.7-0.2c1.8,0,3,1.2,3,3.1c0,1.5-0.7,2.8-2.1,3.7
			c-1.4,0.9-3.6,1.4-6.4,1.4c-8.2,0-11.7-3.4-11.7-11.9V98.3z"/>
		<path class="st1" d="M501.1,131.7c-3.3,0-5.2-2-5.2-5.7v-19.6c0-5.4-2.8-8.5-7.6-8.5c-5.3,0-8.8,4-8.8,10.4v17.8
			c0,3.6-1.9,5.7-5.2,5.7s-5.1-2-5.1-5.7V80.6c0-3.6,1.8-5.7,5.2-5.7c3.3,0,5.1,2.1,5.1,5.7v16.6h0.5c1.4-4.7,6.5-8,12.4-8
			c8.6,0,13.8,5.4,13.8,14.4v22.4C506.3,129.7,504.4,131.7,501.1,131.7z"/>
	</g>
	<path id="heart_2_" class="st1" d="M154.3,89.2c-4.3,0-8.5,2.1-10.8,6.7c-2.3-4.6-6.5-6.7-10.8-6.7c-6.7,0-12.7,4.7-12.7,13.1
		c0,14.2,19.4,21.4,23.5,29.9c4.1-8.5,23.5-15.7,23.5-29.9C167,93.3,160.3,89.2,154.3,89.2z M150.2,99.2c3,0,5.7,2,5.7,6
		c0,6.3-8.3,10.6-12.8,15.2c-4.4-4.6-12.8-8.9-12.8-15.2c0-3.9,2.6-6,5.7-6c4.1,0,6.2,4.6,7,6.8C144,103.8,146.2,99.2,150.2,99.2z"
		/>
</g>
<g id="PayPal">
	<path class="st1" d="M888.7,89.7c-1.2,8-7.3,8-13.2,8h-3.4l2.4-14.9c0.1-0.9,0.9-1.6,1.8-1.6h1.5c4,0,7.8,0,9.7,2.3
		C888.8,84.9,889.1,86.9,888.7,89.7 M886.1,68.9h-22.2c-1.5,0-2.8,1.1-3,2.6l-9,56.9c-0.2,1,0.5,2,1.5,2.1c0.1,0,0.2,0,0.3,0h11.4
		c1.1,0,2-0.8,2.1-1.8l2.5-16.1c0.2-1.5,1.5-2.6,3.1-2.6h7c14.6,0,23.1-7.1,25.3-21.1c1-6.1,0-11-2.8-14.3
		C899.2,70.9,893.6,68.9,886.1,68.9 M730.2,89.7c-1.2,8-7.3,8-13.2,8h-3.4l2.4-14.9c0.1-0.9,0.9-1.6,1.8-1.6h1.5c4,0,7.8,0,9.7,2.3
		C730.3,84.9,730.7,86.9,730.2,89.7 M727.7,68.9h-22.2c-1.5,0-2.8,1.1-3.1,2.6l-9,56.9c-0.2,1,0.5,2,1.5,2.1c0.1,0,0.2,0,0.3,0h10.6
		c1.5,0,2.8-1.1,3-2.6l2.4-15.4c0.2-1.5,1.5-2.6,3-2.6h7c14.6,0,23.1-7.1,25.3-21.1c1-6.1,0-11-2.8-14.3
		C740.7,70.9,735.1,68.9,727.7,68.9 M779.3,110.2c-1,6.1-5.9,10.2-12,10.2c-3.1,0-5.6-1-7.1-2.9c-1.6-1.9-2.2-4.5-1.7-7.5
		c1-6,5.9-10.2,11.9-10.2c3,0,5.5,1,7.1,2.9C779.1,104.5,779.7,107.2,779.3,110.2 M794.1,89.5h-10.6c-0.9,0-1.7,0.7-1.8,1.6l-0.5,3
		l-0.7-1.1c-2.3-3.3-7.4-4.5-12.6-4.5c-11.8,0-21.8,8.9-23.7,21.4c-1,6.2,0.4,12.2,4,16.3c3.2,3.8,7.9,5.4,13.4,5.4
		c9.5,0,14.7-6.1,14.7-6.1l-0.5,3c-0.2,1,0.5,2,1.5,2.1c0.1,0,0.2,0,0.3,0h9.6c1.5,0,2.8-1.1,3-2.6l5.8-36.4c0.2-1-0.5-2-1.5-2.1
		C794.3,89.5,794.2,89.5,794.1,89.5 M937.7,110.2c-1,6.1-5.9,10.2-12,10.2c-3.1,0-5.6-1-7.1-2.9c-1.6-1.9-2.2-4.5-1.7-7.5
		c1-6,5.9-10.2,11.9-10.2c3,0,5.5,1,7.1,2.9C937.5,104.5,938.2,107.2,937.7,110.2 M952.5,89.5h-10.6c-0.9,0-1.7,0.7-1.8,1.6l-0.5,3
		l-0.7-1.1c-2.3-3.3-7.4-4.5-12.6-4.5c-11.8,0-21.8,8.9-23.7,21.4c-1,6.2,0.4,12.2,4,16.3c3.2,3.8,7.9,5.4,13.4,5.4
		c9.5,0,14.7-6.1,14.7-6.1l-0.5,3c-0.2,1,0.5,2,1.5,2.1c0.1,0,0.2,0,0.3,0h9.6c1.5,0,2.8-1.1,3-2.6l5.8-36.4c0.2-1-0.5-2-1.5-2.1
		C952.7,89.5,952.6,89.5,952.5,89.5 M850.7,89.5H840c-1,0-2,0.5-2.6,1.4l-14.7,21.7l-6.3-20.9c-0.4-1.3-1.6-2.2-3-2.2H803
		c-1,0-1.9,0.8-1.9,1.9c0,0.2,0,0.4,0.1,0.6l11.8,34.5L802,142.1c-0.9,1.2,0,2.9,1.5,2.9h10.7c1,0,2-0.5,2.5-1.3l35.6-51.3
		C853.1,91.1,852.2,89.5,850.7,89.5 M965.1,70.5l-9.1,58c-0.2,1,0.5,2,1.5,2.1c0.1,0,0.2,0,0.3,0h9.2c1.5,0,2.8-1.1,3-2.6l9-56.9
		c0.2-1-0.5-2-1.5-2.1c-0.1,0-0.2,0-0.3,0h-10.3C966,68.9,965.2,69.6,965.1,70.5"/>
	<g>
		<defs>
			<filter id="Adobe_OpacityMaskFilter" filterUnits="userSpaceOnUse" x="575" y="47" width="83.1" height="98">
				<feColorMatrix  type="matrix" values="1 0 0 0 0  0 1 0 0 0  0 0 1 0 0  0 0 0 1 0"/>
			</filter>
		</defs>
		<mask maskUnits="userSpaceOnUse" x="575" y="47" width="83.1" height="98" id="e_1_">
			<g class="st2">
				<path id="d_1_" class="st1" d="M575,47h83.1v98H575V47z"/>
			</g>
		</mask>
		<path class="st3" d="M649.9,71.9c1.2-7.6,0-12.8-4.1-17.5c-4.5-5.2-12.7-7.4-23.2-7.4H592c-2.1,0-4,1.6-4.3,3.7L575,131.1
			c-0.2,1.4,0.7,2.8,2.2,3c0.1,0,0.3,0,0.4,0h18.8l-1.3,8.2c-0.2,1.2,0.7,2.4,1.9,2.6c0.1,0,0.2,0,0.4,0h15.9c1.9,0,3.5-1.4,3.8-3.2
			l0.2-0.8l3-18.9l0.2-1c0.3-1.9,1.9-3.2,3.8-3.2h2.4c15.4,0,27.4-6.2,30.9-24.3c1.5-7.5,0.7-13.8-3.2-18.3
			C653,73.9,651.6,72.8,649.9,71.9"/>
		<defs>
			<filter id="Adobe_OpacityMaskFilter_1_" filterUnits="userSpaceOnUse" x="575" y="47" width="75.3" height="87.1">
				<feColorMatrix  type="matrix" values="1 0 0 0 0  0 1 0 0 0  0 0 1 0 0  0 0 0 1 0"/>
			</filter>
		</defs>
		<mask maskUnits="userSpaceOnUse" x="575" y="47" width="75.3" height="87.1" id="g_1_">
			<g class="st4">
				<path id="f_1_" class="st1" d="M575,47h75.3v87.1H575V47z"/>
			</g>
		</mask>
		<path class="st5" d="M649.9,71.9c1.2-7.6,0-12.8-4.1-17.5c-4.5-5.2-12.7-7.4-23.2-7.4H592c-2.1,0-4,1.6-4.3,3.7L575,131.1
			c-0.2,1.4,0.7,2.8,2.2,3c0.1,0,0.3,0,0.4,0h18.8l4.7-30l-0.1,0.9c0.3-2.1,2.1-3.7,4.3-3.7h8.9c17.6,0,31.3-7.1,35.3-27.8
			C649.7,73.1,649.8,72.5,649.9,71.9"/>
		<defs>
			<filter id="Adobe_OpacityMaskFilter_2_" filterUnits="userSpaceOnUse" x="575" y="47" width="75.3" height="87.1">
				<feColorMatrix  type="matrix" values="1 0 0 0 0  0 1 0 0 0  0 0 1 0 0  0 0 0 1 0"/>
			</filter>
		</defs>
		<mask maskUnits="userSpaceOnUse" x="575" y="47" width="75.3" height="87.1" id="i_1_">
			<g class="st6">
				<path id="h_1_" class="st1" d="M575,47h75.3v87.1H575V47z"/>
			</g>
		</mask>
		<path class="st7" d="M606.2,72c0.3-1.9,1.9-3.2,3.8-3.2h23.9c2.8,0,5.5,0.2,7.9,0.6c0.7,0.1,1.4,0.2,2,0.4
			c0.9,0.2,1.9,0.5,2.8,0.8c1.1,0.4,2.2,0.8,3.3,1.4c1.2-7.6,0-12.8-4.1-17.5c-4.5-5.2-12.7-7.4-23.2-7.4H592c-2.1,0-4,1.6-4.3,3.7
			L575,131.1c-0.2,1.4,0.7,2.8,2.2,3c0.1,0,0.3,0,0.4,0h18.8l4.7-30L606.2,72L606.2,72z"/>
	</g>
</g>
</svg>

<svg width="1050" height="200" viewBox="0 0 1050 200" fill="none" xmlns="http://www.w3.org/2000/svg">
<g clip-path="url(#clip0_2_47)">
<path d="M1018 200H32C14.3 200 0 185.7 0 168V32C0 14.3 14.3 0 32 0H1018C1035.7 0 1050 14.3 1050 32V168C1050 185.7 1035.7 200 1018 200Z" fill="#003087"/>
<path d="M73.3 110.6C73.3 97.5 80.1 89.2 90.5 89.2C96.4 89.2 101.1 92.3 103.3 96.9H103.5V79.3C103.5 76 105.5 74.2 108.3 74.2C111.1 74.2 113.2 76 113.2 79.3V127.2C113.2 130.3 111.2 132.1 108.4 132.1C105.6 132.1 103.5 130.4 103.5 127.2V124H103.3C101.3 128.8 96.9 132 90.4 132C80 132 73.3 123.8 73.3 110.6ZM103.5 110.6C103.5 102.5 99.5 97.2 93.3 97.2C87 97.2 83.1 102.4 83.1 110.6C83.1 118.8 87 124 93.3 124C99.5 124 103.5 118.8 103.5 110.6Z" fill="white"/>
<path d="M205.5 131.7C202.2 131.7 200.3 129.7 200.3 126V106.3C200.3 100.9 197.6 97.8 192.8 97.8C187.4 97.8 184.1 101.7 184.1 108.2V126C184.1 129.6 182.2 131.7 178.9 131.7C175.6 131.7 173.7 129.7 173.7 126V95C173.7 91.6 175.7 89.5 178.8 89.5C181.9 89.5 183.7 91.3 183.8 94.7V97.2H184.3C185.9 92.3 190.6 89.2 196.6 89.2C205.4 89.2 210.4 94.4 210.4 103.5V126C210.6 129.7 208.8 131.7 205.5 131.7Z" fill="white"/>
<path d="M232 131.9C223.9 131.9 218.4 126.8 218.4 119.3C218.4 111.6 224.1 106.9 233.5 106.9H243.3V103.5C243.3 99.3 240.7 97.1 236 97.1C232.9 97.1 230.6 98.3 228.3 100.3C227.1 101.2 226 101.7 224.4 101.7C222.1 101.7 220.7 100.2 220.7 98.1C220.7 95.7 222.4 93.2 226 91.4C228.6 90 232.1 89.3 236.6 89.3C247.5 89.3 253.6 94.5 253.6 103.6V126.3C253.6 129.8 251.8 131.8 248.6 131.8C245.9 131.8 244.1 130.3 243.8 127.6V126.2H243.3C241.1 129.8 237 131.9 232 131.9ZM235.4 124.5C239.9 124.5 243.3 121.5 243.3 117.5V113.2H235.3C231.1 113.2 228.6 115.2 228.6 118.6C228.6 122.1 231.4 124.5 235.4 124.5Z" fill="white"/>
<path d="M266.3 98.3H264.2C261.4 98.3 259.8 96.8 259.8 94.3C259.8 91.8 261.4 90.3 264.2 90.3H266.5V84.9C266.5 81.3 268.3 79.4 271.5 79.4C274.7 79.4 276.5 81.4 276.5 84.9V90.3H280.6C283.4 90.3 285 91.8 285 94.3C285 96.8 283.4 98.3 280.6 98.3H276.6V119.2C276.6 123 277.6 124.2 280.7 124.2C281.8 124.2 282.5 124 283.4 124C285.2 124 286.4 125.2 286.4 127.1C286.4 128.6 285.7 129.9 284.3 130.8C282.9 131.7 280.7 132.2 277.9 132.2C269.7 132.2 266.2 128.8 266.2 120.3V98.3H266.3Z" fill="white"/>
<path d="M291.3 108C291.3 96.7 298.8 89 309.9 89C320.4 89 327.9 96.5 327.9 106.7C327.9 111.3 326.6 112.9 322.7 112.9H301.7V114.7C301.7 120.5 305.4 124.2 311.5 124.2C314.7 124.2 317 123.4 318.8 121.9C320.8 120.4 321.5 119.8 323.1 119.8C325.2 119.8 326.7 121.3 326.7 123.6C326.7 125.4 325.6 127.2 323.6 128.6C320.9 130.9 316.1 132.3 310.8 132.3C298.7 132.3 291.2 125.2 291.2 113.4V108H291.3ZM318.1 106.4C318.1 100.7 315 97 310.1 97C305 97 301.8 100.8 301.8 106.3V106.4H318.1Z" fill="white"/>
<path d="M359.5 97.1C359.2 95.9 359.1 95.2 359.1 94.6C359.1 91.7 361.2 89.6 364.3 89.6C367 89.6 368.8 91.4 369.3 94.7L374.5 120.6H375L381.2 96.1C382.4 91.3 384.1 89.5 387.5 89.5C390.9 89.5 392.7 91.3 393.9 96.1L400.2 120.6H400.7L406.1 94.7C406.7 91.5 408.5 89.6 411.1 89.6C414.2 89.6 416.1 91.6 416.1 94.3C416.1 94.9 415.9 95.8 415.6 97L408.4 123.5C406.7 129.7 404.7 131.7 401.1 131.7C397.2 131.7 395.2 129.7 393.6 123.5L387.6 101.7H387.2L381.4 123.5C379.8 129.8 378 131.7 374.1 131.7C370.3 131.7 368.2 129.6 366.6 123.5L359.5 97.1Z" fill="white"/>
<path d="M426.9 74C430.3 74 432.8 76.3 432.8 79.4C432.8 82.5 430.3 84.8 426.9 84.8C423.6 84.8 421.1 82.5 421.1 79.4C421.1 76.3 423.6 74 426.9 74ZM426.9 131.7C423.7 131.7 421.8 129.7 421.8 126V95.2C421.8 91.4 423.8 89.5 427 89.5C430.2 89.5 432.1 91.5 432.1 95.2V126.1C432.1 129.8 430.1 131.7 426.9 131.7Z" fill="white"/>
<path d="M444 98.3H441.9C439.1 98.3 437.5 96.8 437.5 94.3C437.5 91.8 439.1 90.3 441.9 90.3H444.2V84.9C444.2 81.3 446 79.4 449.2 79.4C452.4 79.4 454.2 81.4 454.2 84.9V90.3H458.3C461.1 90.3 462.7 91.8 462.7 94.3C462.7 96.8 461.1 98.3 458.3 98.3H454.3V119.2C454.3 123 455.3 124.2 458.4 124.2C459.5 124.2 460.2 124 461.1 124C462.9 124 464.1 125.2 464.1 127.1C464.1 128.6 463.4 129.9 462 130.8C460.6 131.7 458.4 132.2 455.6 132.2C447.4 132.2 443.9 128.8 443.9 120.3V98.3H444Z" fill="white"/>
<path d="M501.1 131.7C497.8 131.7 495.9 129.7 495.9 126V106.4C495.9 101 493.1 97.9 488.3 97.9C483 97.9 479.5 101.9 479.5 108.3V126.1C479.5 129.7 477.6 131.8 474.3 131.8C471 131.8 469.2 129.8 469.2 126.1V80.6C469.2 77 471 74.9 474.4 74.9C477.7 74.9 479.5 77 479.5 80.6V97.2H480C481.4 92.5 486.5 89.2 492.4 89.2C501 89.2 506.2 94.6 506.2 103.6V126C506.3 129.7 504.4 131.7 501.1 131.7Z" fill="white"/>
<path d="M154.3 89.2C150 89.2 145.8 91.3 143.5 95.9C141.2 91.3 137 89.2 132.7 89.2C126 89.2 120 93.9 120 102.3C120 116.5 139.4 123.7 143.5 132.2C147.6 123.7 167 116.5 167 102.3C167 93.3 160.3 89.2 154.3 89.2ZM150.2 99.2C153.2 99.2 155.9 101.2 155.9 105.2C155.9 111.5 147.6 115.8 143.1 120.4C138.7 115.8 130.3 111.5 130.3 105.2C130.3 101.3 132.9 99.2 136 99.2C140.1 99.2 142.2 103.8 143 106C144 103.8 146.2 99.2 150.2 99.2Z" fill="white"/>
<path d="M888.7 89.7C887.5 97.7 881.4 97.7 875.5 97.7H872.1L874.5 82.8C874.6 81.9 875.4 81.2 876.3 81.2H877.8C881.8 81.2 885.6 81.2 887.5 83.5C888.8 84.9 889.1 86.9 888.7 89.7ZM886.1 68.9H863.9C862.4 68.9 861.1 70 860.9 71.5L851.9 128.4C851.7 129.4 852.4 130.4 853.4 130.5C853.5 130.5 853.6 130.5 853.7 130.5H865.1C866.2 130.5 867.1 129.7 867.2 128.7L869.7 112.6C869.9 111.1 871.2 110 872.8 110H879.8C894.4 110 902.9 102.9 905.1 88.9C906.1 82.8 905.1 77.9 902.3 74.6C899.2 70.9 893.6 68.9 886.1 68.9ZM730.2 89.7C729 97.7 722.9 97.7 717 97.7H713.6L716 82.8C716.1 81.9 716.9 81.2 717.8 81.2H719.3C723.3 81.2 727.1 81.2 729 83.5C730.3 84.9 730.7 86.9 730.2 89.7ZM727.7 68.9H705.5C704 68.9 702.7 70 702.4 71.5L693.4 128.4C693.2 129.4 693.9 130.4 694.9 130.5C695 130.5 695.1 130.5 695.2 130.5H705.8C707.3 130.5 708.6 129.4 708.8 127.9L711.2 112.5C711.4 111 712.7 109.9 714.2 109.9H721.2C735.8 109.9 744.3 102.8 746.5 88.8C747.5 82.7 746.5 77.8 743.7 74.5C740.7 70.9 735.1 68.9 727.7 68.9ZM779.3 110.2C778.3 116.3 773.4 120.4 767.3 120.4C764.2 120.4 761.7 119.4 760.2 117.5C758.6 115.6 758 113 758.5 110C759.5 104 764.4 99.8 770.4 99.8C773.4 99.8 775.9 100.8 777.5 102.7C779.1 104.5 779.7 107.2 779.3 110.2ZM794.1 89.5H783.5C782.6 89.5 781.8 90.2 781.7 91.1L781.2 94.1L780.5 93C778.2 89.7 773.1 88.5 767.9 88.5C756.1 88.5 746.1 97.4 744.2 109.9C743.2 116.1 744.6 122.1 748.2 126.2C751.4 130 756.1 131.6 761.6 131.6C771.1 131.6 776.3 125.5 776.3 125.5L775.8 128.5C775.6 129.5 776.3 130.5 777.3 130.6C777.4 130.6 777.5 130.6 777.6 130.6H787.2C788.7 130.6 790 129.5 790.2 128L796 91.6C796.2 90.6 795.5 89.6 794.5 89.5C794.3 89.5 794.2 89.5 794.1 89.5ZM937.7 110.2C936.7 116.3 931.8 120.4 925.7 120.4C922.6 120.4 920.1 119.4 918.6 117.5C917 115.6 916.4 113 916.9 110C917.9 104 922.8 99.8 928.8 99.8C931.8 99.8 934.3 100.8 935.9 102.7C937.5 104.5 938.2 107.2 937.7 110.2ZM952.5 89.5H941.9C941 89.5 940.2 90.2 940.1 91.1L939.6 94.1L938.9 93C936.6 89.7 931.5 88.5 926.3 88.5C914.5 88.5 904.5 97.4 902.6 109.9C901.6 116.1 903 122.1 906.6 126.2C909.8 130 914.5 131.6 920 131.6C929.5 131.6 934.7 125.5 934.7 125.5L934.2 128.5C934 129.5 934.7 130.5 935.7 130.6C935.8 130.6 935.9 130.6 936 130.6H945.6C947.1 130.6 948.4 129.5 948.6 128L954.4 91.6C954.6 90.6 953.9 89.6 952.9 89.5C952.7 89.5 952.6 89.5 952.5 89.5ZM850.7 89.5H840C839 89.5 838 90 837.4 90.9L822.7 112.6L816.4 91.7C816 90.4 814.8 89.5 813.4 89.5H803C802 89.5 801.1 90.3 801.1 91.4C801.1 91.6 801.1 91.8 801.2 92L813 126.5L802 142.1C801.1 143.3 802 145 803.5 145H814.2C815.2 145 816.2 144.5 816.7 143.7L852.3 92.4C853.1 91.1 852.2 89.5 850.7 89.5ZM965.1 70.5L956 128.5C955.8 129.5 956.5 130.5 957.5 130.6C957.6 130.6 957.7 130.6 957.8 130.6H967C968.5 130.6 969.8 129.5 970 128L979 71.1C979.2 70.1 978.5 69.1 977.5 69C977.4 69 977.3 69 977.2 69H966.9C966 68.9 965.2 69.6 965.1 70.5Z" fill="white"/>
<path opacity="0.678" d="M649.9 71.9C651.1 64.3 649.9 59.1 645.8 54.4C641.3 49.2 633.1 47 622.6 47H592C589.9 47 588 48.6 587.7 50.7L575 131.1C574.8 132.5 575.7 133.9 577.2 134.1C577.3 134.1 577.5 134.1 577.6 134.1H596.4L595.1 142.3C594.9 143.5 595.8 144.7 597 144.9C597.1 144.9 597.2 144.9 597.4 144.9H613.3C615.2 144.9 616.8 143.5 617.1 141.7L617.3 140.9L620.3 122L620.5 121C620.8 119.1 622.4 117.8 624.3 117.8H626.7C642.1 117.8 654.1 111.6 657.6 93.5C659.1 86 658.3 79.7 654.4 75.2C653 73.9 651.6 72.8 649.9 71.9Z" fill="white"/>
<path opacity="0.696" d="M649.9 71.9C651.1 64.3 649.9 59.1 645.8 54.4C641.3 49.2 633.1 47 622.6 47H592C589.9 47 588 48.6 587.7 50.7L575 131.1C574.8 132.5 575.7 133.9 577.2 134.1C577.3 134.1 577.5 134.1 577.6 134.1H596.4L601.1 104.1L601 105C601.3 102.9 603.1 101.3 605.3 101.3H614.2C631.8 101.3 645.5 94.2 649.5 73.5C649.7 73.1 649.8 72.5 649.9 71.9Z" fill="white"/>
<path d="M606.2 72C606.5 70.1 608.1 68.8 610 68.8H633.9C636.7 68.8 639.4 69 641.8 69.4C642.5 69.5 643.2 69.6 643.8 69.8C644.7 70 645.7 70.3 646.6 70.6C647.7 71 648.8 71.4 649.9 72C651.1 64.4 649.9 59.2 645.8 54.5C641.3 49.3 633.1 47.1 622.6 47.1H592C589.9 47.1 588 48.7 587.7 50.8L575 131.1C574.8 132.5 575.7 133.9 577.2 134.1C577.3 134.1 577.5 134.1 577.6 134.1H596.4L601.1 104.1L606.2 72Z" fill="white"/>
</g>
<defs>
<clipPath id="clip0_2_47">
<rect width="1050" height="200" fill="white"/>
</clipPath>
</defs>
</svg>
